docs/images/icons/corner_logo.svg

<svg width="518" height="187" viewBox="0 0 518 187" fill="none" xmlns="http://www.w3.org/2000/svg">
<g clip-path="url(#clip0_757_2697)">
<path d="M132.661 32.3958V53.9514H174.816V161.565H203.531V53.9514H246.219V32.3958H132.661Z" fill="white"/>
<path opacity="0.4" d="M189.381 32.3958V161.565H174.816V53.9514H132.661V32.3958H189.381Z" fill="white"/>
<path d="M101.518 64.8298L92.5187 43.1096L88.611 33.4014L88.1966 32.3593H61.5535L57.9419 41.3545L25.0821 123.408L9.8068 161.638H39.943L49.7714 134.981L74.9342 126.59L75.2303 126.48L100.097 134.981L109.156 161.419L141.423 161.638L101.518 64.8298ZM74.9935 106.405L74.8158 106.35L57.5275 113.426L64.8691 92.9672L74.875 65.104L74.9935 65.3783L80.6181 80.9553L92.4002 113.481L74.9935 106.405Z" fill="white"/>
<path d="M375.053 32.3939V161.563H346.278V75.7793L290.387 161.563H261.671V32.5036L275.703 43.7476L275.999 43.967L290.387 32.1745V118.342L340.357 41.444L345.804 33.1069L346.278 32.3939H375.053Z" fill="white"/>
<path d="M504.479 116.644C504.42 115.437 504.302 114.285 504.124 113.133C503.295 107.648 501.4 102.767 498.381 98.4339C496.545 95.856 494.414 93.4426 491.75 91.2487C491.276 90.8099 490.743 90.4259 490.151 89.9871C483.224 84.6668 474.521 81.2662 464.041 79.7852C460.311 79.2368 456.344 78.9625 452.2 78.9625C451.844 78.9625 451.489 78.9625 451.075 78.9625H428.635V53.9514H492.46L481.152 43.6947L492.283 32.3958H399.683V161.62H452.2C459.008 161.565 465.284 160.797 470.909 159.371C471.975 159.097 473.04 158.822 474.106 158.439C480.204 156.519 485.592 153.721 490.21 150.047C499.743 142.423 504.538 132.385 504.538 119.825C504.598 118.728 504.538 117.686 504.479 116.644ZM469.192 134.579C464.929 138.199 459.304 140.064 452.259 140.174C452.081 140.174 451.844 140.174 451.667 140.174H428.754V100.408H452.318C459.6 100.518 465.343 102.273 469.488 105.729C473.692 109.129 475.764 113.737 475.764 119.606C475.764 125.858 473.573 130.85 469.192 134.579Z" fill="white"/>
<path d="M489.23 109.341V116.307H496.749V109.341H489.23Z" fill="#FBBF0D"/>
<path d="M481.815 116.194V123.16H489.334V116.194H481.815Z" fill="#FBBF0D"/>
<path d="M489.218 123.12V130.085H496.738V123.12H489.218Z" fill="#FBBF0D"/>
<path d="M348.201 47.5791H355.72V40.6133H348.201V47.5791Z" fill="#3F94FF"/>
<path d="M355.617 54.4453H363.136V47.4795H355.617V54.4453Z" fill="#3F94FF"/>
<path d="M363.088 47.5791H370.607V40.6133H363.088V47.5791Z" fill="#3F94FF"/>
<path d="M200.634 146.477H193.114V153.442H200.634V146.477Z" fill="#FF2C60"/>
<path d="M193.167 139.569H185.647V146.535H193.167V139.569Z" fill="#FF2C60"/>
<path d="M185.769 146.477H178.25V153.442H185.769V146.477Z" fill="#FF2C60"/>
<path d="M71.4452 40.5675H63.926V47.5333H71.4452V40.5675Z" fill="#7053FF"/>
<path d="M71.3393 54.4028H78.8586V47.437H71.3393V54.4028Z" fill="#7053FF"/>
<path d="M78.7523 47.5378H86.2716V40.5719H78.7523V47.5378Z" fill="#7053FF"/>
<path opacity="0.4" d="M415.669 32.3958H399.683V161.62H415.669V32.3958Z" fill="white"/>
<path opacity="0.4" d="M275.703 43.7457V161.561H261.671V32.5016L275.703 43.7457Z" fill="white"/>
</g>
<rect x="3.5" y="7.5" width="511" height="176" stroke="#18A0FB"/>
<rect x="0.5" y="4.5" width="7" height="7" fill="white" stroke="#18A0FB" stroke-linecap="square"/>
<rect x="0.5" y="179.5" width="7" height="7" fill="white" stroke="#18A0FB" stroke-linecap="square"/>
<rect x="510.5" y="4.5" width="7" height="7" fill="white" stroke="#18A0FB" stroke-linecap="square"/>
<rect x="510.5" y="179.5" width="7" height="7" fill="white" stroke="#18A0FB" stroke-linecap="square"/>
<defs>
<clipPath id="clip0_757_2697">
<rect width="499" height="185" fill="white" transform="translate(10)"/>
</clipPath>
</defs>
</svg>

<svg width="518" height="187" fill="none" xmlns="http://www.w3.org/2000/svg"><g clip-path="url(#a)"><path d="M132.661 32.396V53.95h42.155v107.614h28.715V53.951h42.688V32.396H132.661Z" fill="#fff"/><path opacity=".4" d="M189.381 32.396v129.169h-14.565V53.951h-42.155V32.396h56.72Z" fill="#fff"/><path d="m101.518 64.83-9-21.72-3.907-9.709-.414-1.042H61.553l-3.611 8.995-32.86 82.054-15.275 38.23h30.136l9.828-26.657 25.163-8.391.296-.11 24.867 8.501 9.059 26.438 32.267.219-39.905-96.808Zm-26.525 41.575-.177-.055-17.288 7.076 7.341-20.459 10.006-27.863.118.274 5.625 15.577L92.4 113.481l-17.407-7.076Zm300.06-74.011v129.169h-28.775V75.779l-55.891 85.784h-28.716V32.503l14.032 11.245.296.219 14.388-11.792v86.167l49.97-76.898 5.447-8.337.474-.713h28.775Zm129.426 84.25a33.516 33.516 0 0 0-.355-3.511c-.829-5.485-2.724-10.366-5.743-14.7-1.836-2.577-3.967-4.99-6.631-7.184-.474-.44-1.007-.823-1.599-1.262-6.927-5.32-15.63-8.72-26.11-10.202-3.73-.548-7.697-.822-11.841-.822h-23.565V53.95h63.825l-11.308-10.256 11.131-11.3h-92.6V161.62H452.2c6.808-.055 13.084-.823 18.709-2.249 1.066-.274 2.131-.549 3.197-.932 6.098-1.92 11.486-4.718 16.104-8.392 9.533-7.624 14.328-17.662 14.328-30.222.06-1.097 0-2.139-.059-3.181Zm-35.287 17.935c-4.263 3.62-9.888 5.485-16.933 5.595h-23.505v-39.766h23.564c7.282.11 13.025 1.865 17.17 5.321 4.204 3.4 6.276 8.008 6.276 13.877 0 6.252-2.191 11.244-6.572 14.973Z" fill="#fff"/><path d="M489.23 109.341v6.966h7.519v-6.966h-7.519Z" fill="#FBBF0D"/><path d="M481.815 116.194v6.966h7.519v-6.966h-7.519Z" fill="#FBBF0D"/><path d="M489.218 123.12v6.965h7.52v-6.965h-7.52Z" fill="#FBBF0D"/><path d="M348.201 47.58h7.519v-6.967h-7.519v6.966Z" fill="#3F94FF"/><path d="M355.617 54.445h7.519V47.48h-7.519v6.965Z" fill="#3F94FF"/><path d="M363.088 47.58h7.519v-6.967h-7.519v6.966Z" fill="#3F94FF"/><path d="M200.634 146.477h-7.52v6.965h7.52v-6.965Z" fill="#FF2C60"/><path d="M193.167 139.569h-7.52v6.966h7.52v-6.966Z" fill="#FF2C60"/><path d="M185.769 146.477h-7.519v6.965h7.519v-6.965Z" fill="#FF2C60"/><path d="M71.445 40.568h-7.519v6.965h7.52v-6.965Z" fill="#7053FF"/><path d="M71.34 54.403h7.519v-6.966h-7.52v6.966Z" fill="#7053FF"/><path d="M78.752 47.538h7.52v-6.966h-7.52v6.966Z" fill="#7053FF"/><path opacity=".4" d="M415.669 32.396h-15.986V161.62h15.986V32.396Zm-139.966 11.35V161.56h-14.032V32.501l14.032 11.245Z" fill="#fff"/></g><path stroke="#18A0FB" d="M3.5 7.5h511v176H3.5z"/><path fill="#fff" stroke="#18A0FB" stroke-linecap="square" d="M.5 4.5h7v7h-7zm0 175h7v7h-7zm510-175h7v7h-7zm0 175h7v7h-7z"/><defs><clipPath id="a"><path fill="#fff" transform="translate(10)" d="M0 0h499v185H0z"/></clipPath></defs></svg>
